X:18014
T:Roxborough Castle
R:Reel
C:Trad.
O:Scotland
M:4/4
L:1/8
Q:1/4=140
K:G
D2|"G"G2 GB dBGB|"C"cBce "G"dBGB|"C"c2 ec B2 dB|"Am"c2 A2 "D7"AcBA|
"G"GFGB dBGB|"C"cBce "G"dBGB|dgfe "D7"dcBA|"G"B2 G2 G2:|
|:d2|"G"gdBd edBd|gdBd edBd|"C"c2 ec "G"B2 dB|"Am"c2 A2 "D7"AcBA|
"G"GFGB dBGB|"C"cBce "G"dBGB|dgfe "D7"dcBA|"G"B2 G2 G2:|

